icons/svg/placeholder_8.svg

<?xml version="1.0" encoding="UTF-8"?>
<svg width="8px" height="8px" viewBox="0 0 8 8" version="1.1" xmlns="http://www.w3.org/2000/svg" xmlns:xlink="http://www.w3.org/1999/xlink">
    <!-- Generator: Sketch 57.1 (83088) - https://sketch.com -->
    <title>placeholder_8</title>
    <desc>Created with Sketch.</desc>
    <g id="Icons-Webex" stroke="none" stroke-width="1" fill="none" fill-rule="evenodd">
        <g id="content/placeholder_8" fill="#171B1F">
            <path d="M2,0 L6,0 C7.1045695,0 8,0.8954305 8,2 L8,6 C8,7.1045695 7.1045695,8 6,8 L2,8 C0.8954305,8 0,7.1045695 0,6 L0,2 C0,0.8954305 0.8954305,0 2,0 Z M2,1 C1.44771525,1 1,1.44771525 1,2 L1,6 C1,6.55228475 1.44771525,7 2,7 L6,7 C6.55228475,7 7,6.55228475 7,6 L7,2 C7,1.44771525 6.55228475,1 6,1 L2,1 Z" id="fill"></path>
        </g>
    </g>
</svg>

<svg width="8" height="8" xmlns="http://www.w3.org/2000/svg"><path d="M2 0h4a2 2 0 012 2v4a2 2 0 01-2 2H2a2 2 0 01-2-2V2a2 2 0 012-2zm0 1a1 1 0 00-1 1v4a1 1 0 001 1h4a1 1 0 001-1V2a1 1 0 00-1-1H2z" fill="#171B1F" fill-rule="evenodd"/></svg>
